X:555
T:Bourre
L:1/8
M:2/4
O:France
R:Bourre
Z:Richard Robinson 
%%TUNEURL: http://www.leeds.ac.uk/music/Info/RRTuneBk/gettune/00000b84.html
%%ID:00000b84
K:C
A>BcA| d>efe| d>gfe| d2d2| A>BcA| d>efe| dgfe| d4 ::
A>BcA| G>ABG| g>fed| c>dec| A>BcA| G>ABG| g>fed| c4:|
